img/features-icon.svg

<?xml version="1.0" encoding="UTF-8"?>
<svg width="50px" height="36px" viewBox="0 0 50 36" version="1.1" xmlns="http://www.w3.org/2000/svg" xmlns:xlink="http://www.w3.org/1999/xlink">
    <!-- Generator: Sketch 45 (43475) - http://www.bohemiancoding.com/sketch -->
    <title>Group 8</title>
    <desc>Created with Sketch.</desc>
    <defs></defs>
    <g id="Page-1" stroke="none" stroke-width="1" fill="none" fill-rule="evenodd">
        <g id="6-14-5" transform="translate(-401.000000, -1158.000000)">
            <g id="Product-Snapshot" transform="translate(155.000000, 1057.000000)">
                <g id="Snapshot-6" transform="translate(231.000000, 102.000000)">
                    <g id="Group-8" transform="translate(16.000000, 0.000000)">
                        <g id="features-icon-1.5x">
                            <g id="bottom" transform="translate(0.000000, 0.022714)">
                                <path d="M0.0681492252,20.6208029 C0.0681492252,19.5127297 0.962461579,18.6144589 2.06481229,18.6144589 L34.2502852,18.6144589 C35.3530117,18.6144589 36.2469482,19.5088475 36.2469482,20.6208029 L36.2469482,31.2584203 C36.2469482,32.3664936 35.3526359,33.2647644 34.2502852,33.2647644 L2.06481229,33.2647644 C0.962085728,33.2647644 0.0681492252,32.3703757 0.0681492252,31.2584203 L0.0681492252,20.6208029 Z M0.0681492252,2.06374928 C0.0681492252,0.955676047 0.962461579,0.0574052064 2.06481229,0.0574052064 L34.2502852,0.0574052064 C35.3530117,0.0574052064 36.2469482,0.951793883 36.2469482,2.06374928 L36.2469482,12.7013667 C36.2469482,13.8094399 35.3526359,14.7077107 34.2502852,14.7077107 L2.06481229,14.7077107 C0.962085728,14.7077107 0.0681492252,13.8133221 0.0681492252,12.7013667 L0.0681492252,2.06374928 Z" id="Combined-Shape" stroke="#071D49" stroke-width="1.5"></path>
                                <ellipse id="left-dot" fill="#071D49" cx="6.11128362" cy="25.855889" rx="1.22225672" ry="1.22085879"></ellipse>
                                <ellipse id="middle-dot" fill="#071D49" cx="11.4892132" cy="25.855889" rx="1.22225672" ry="1.22085879"></ellipse>
                                <ellipse id="right-dot" fill="#071D49" cx="16.8671428" cy="25.855889" rx="1.22225672" ry="1.22085879"></ellipse>
                            </g>
                            <g id="top" transform="translate(4.366015, 5.451276)" fill="#071D49">
                                <ellipse id="left-dot-copy" cx="1.7452689" cy="1.87027247" rx="1.22225672" ry="1.22085879"></ellipse>
                                <ellipse id="middle-dot-copy" cx="7.12319849" cy="1.87027247" rx="1.22225672" ry="1.22085879"></ellipse>
                                <ellipse id="right-dot-copy" cx="12.5011281" cy="1.87027247" rx="1.22225672" ry="1.22085879"></ellipse>
                            </g>
                            <g id="magnifying-glass-copy" transform="translate(21.511718, 5.860122)" stroke="#071D49">
                                <ellipse id="Oval-9" stroke-width="1.5" fill="#FFFFFF" cx="10.8596425" cy="10.9919765" rx="10.5602981" ry="10.54822"></ellipse>
                                <path d="M18.4443514,20.0057588 L25.3994099,26.8269753" id="Path-4" stroke-width="2.5" stroke-linecap="round"></path>
                            </g>
                        </g>
                    </g>
                </g>
            </g>
        </g>
    </g>
</svg>

<svg width="50" height="36" xmlns="http://www.w3.org/2000/svg"><g fill="none" fill-rule="evenodd"><g transform="translate(1 1.023)"><path d="M.068 20.62c0-1.107.894-2.006 1.997-2.006H34.25a2 2 0 011.997 2.007v10.637a2.002 2.002 0 01-1.997 2.007H2.065a1.999 1.999 0 01-1.997-2.007V20.621zm0-18.556C.068.956.962.057 2.065.057H34.25a2 2 0 011.997 2.007V12.7a2.002 2.002 0 01-1.997 2.007H2.065A1.999 1.999 0 01.068 12.7V2.064z" stroke="#071D49" stroke-width="1.5"/><ellipse fill="#071D49" cx="6.111" cy="25.856" rx="1.222" ry="1.221"/><ellipse fill="#071D49" cx="11.489" cy="25.856" rx="1.222" ry="1.221"/><ellipse fill="#071D49" cx="16.867" cy="25.856" rx="1.222" ry="1.221"/></g><g transform="translate(5.366 6.451)" fill="#071D49"><ellipse cx="1.745" cy="1.87" rx="1.222" ry="1.221"/><ellipse cx="7.123" cy="1.87" rx="1.222" ry="1.221"/><ellipse cx="12.501" cy="1.87" rx="1.222" ry="1.221"/></g><g transform="translate(22.512 6.86)" stroke="#071D49"><ellipse stroke-width="1.5" fill="#FFF" cx="10.86" cy="10.992" rx="10.56" ry="10.548"/><path d="M18.444 20.006l6.955 6.821" stroke-width="2.5" stroke-linecap="round"/></g></g></svg>
